X: 3
T: Brännvinspolska efter August Karlsson
O: Rosersberg
M: 3/4
L: 1/16
K: D
Q: 120
|: D4 F2F2 A2A2| d2d2 f2f2 a4| f2ef (ga)gf (ef)ed| (cd)cB (AB)AG F2E2|
D4 F2F2 A2A2| d2d2 f2f2 a4| f2ef g2f2 e2d2| (fe)dc d4D4 :: (fg)fe d2d2 d2f2|
a2e2 (ed)cB [EA]4| d2dc (Bc)BA B2c2| e2ed (cB)A^G [AE]4| (DF)(AF) (DF)(AF) (DF)(AF)|
F2E2 E2E2 [EA,]4| (DF)(AF) (DF)(AF) (DF)(AF)| F2E2 E2E2 [EA,]4| D2EF G2(3ABc d2(3efg| (ag)ec d4 D4 :|

